X:1
T:Title
%%score { ( 1 3 ) | ( 2 4 ) }
L:1/8
Q:1/4=106
M:4/4
K:Bb
V:1 treble nm="Grand Piano"
V:3 treble 
V:2 bass 
V:4 bass 
V:1
 [DF]3 [EG] [DF][CE][B,D][CE] | [DF]4 [DB]4 | A3 B AGFG | [DF]6 z2 | %4
w: Samuel~W.~Beazley * * * * *||||
 [B,DF]3 [B,EG] [B,DF][K:bass][F,CE][F,B,D][F,CE] | [B,DF]4 [DFB]4 | %6
w: ||
 [FA]3 [Fc] [=Ec][DEB][CEA][B,EG] | [A,F]6 z2 | [Fd]>[Fd] [Fd]2 [Fd]>[Fd] [Fd]2 | %9
w: |||
 [Fd][Fd][Ec][Ec] [DB][DB] [DF]2 | e>e e2 e>e e2 | eedd cc [DB]2 | %12
w: |||
 [Fd]>[Ec] [DB][DF] [B,D][CE] [DF]2 | [EG]>[FA] [GB][Gc] [GB][EG] [DF]2 | %14
w: ||
 [DF]>[DB] [Fd]2 [Ff]>[Ff] [Ff][Ge] | (3ddd c>c [DB]2 z2 |] %16
w: ||
V:2
 [B,,B,]3 [B,,B,] [B,,B,][B,,F,][B,,F,][B,,F,] | [B,,B,]4 [B,,B,]4 | %2
 [F,CE]3 [F,CE] [F,CE][F,B,E][F,A,E][F,A,E] | z2 D,F, B,2 z2 | B,,3 B,, B,,B,,B,,B,, | B,,4 B,,4 | %6
 C,3 [C,A,] C,C,C,C, | F,6 z2 | [B,,B,]>[B,,B,] [B,,B,]2 [B,,B,]>[B,,B,] [B,,B,]2 | %9
 [B,,B,][B,,B,][B,,F,][B,,F,] [B,,F,][B,,F,] [B,,B,]2 | %10
 [F,A,F]>[F,A,F] [F,A,F]2 [F,A,F]>[F,A,F] [F,A,F]2 | %11
 [F,A,F][F,A,F][F,B,F][F,B,F] [F,A,E][F,A,E] [B,,B,]2 | %12
 [B,,B,]>[B,,F,] [B,,F,][B,,B,] [B,,F,][B,,F,] [B,,B,]2 | %13
 [E,B,]>[E,B,] [E,B,][E,B,] [E,B,][E,B,] [B,,B,]2 | %14
 [B,,B,]>[B,,F,] [B,,B,]2 [D,B,]>[D,B,] [D,B,][E,B,] | %15
 (3[F,B,F][F,B,F][F,B,F] [F,A,E]>[F,A,E] [B,,B,]2 z2 |] %16
V:3
 x8 | x8 | x8 | B,4 z4 | x5[K:bass] x3 | x8 | x8 | x8 | x8 | x8 | x8 | x8 | x8 | x8 | x8 | x8 |] %16
V:4
 x8 | x8 | x8 | B,,6 z2 | x8 | x8 | x8 | z2 C,2 F,,2 z2 | x8 | x8 | x8 | x8 | x8 | x8 | x8 | x8 |] %16

